src/img/icons/chat.svg

<svg width="40" height="41" viewBox="0 0 40 41" fill="none" xmlns="http://www.w3.org/2000/svg">
<g clip-path="url(#clip0)">
<path d="M37.791 22.9382C39.2374 20.646 39.9998 18.0072 39.9998 15.2786C39.9998 7.35225 33.5512 0.903656 25.6248 0.903656C22.9698 0.903656 20.3758 1.63342 18.1233 3.01405C17.7554 3.23952 17.6399 3.72045 17.8655 4.08834C18.0909 4.45616 18.5718 4.5717 18.9398 4.34616C20.9465 3.11623 23.2582 2.46616 25.6249 2.46616C32.6897 2.46616 38.4373 8.21373 38.4373 15.2786C38.4373 17.8408 37.6837 20.3136 36.2577 22.4294C36.0685 22.7101 36.0847 23.0729 36.2793 23.3334L37.1354 26.5284L33.6991 25.6076C33.4741 25.5473 33.2338 25.5905 33.044 25.7257C30.8691 27.2732 28.3037 28.0911 25.6249 28.0911C24.0989 28.0911 22.6063 27.8245 21.1868 27.3001C20.1875 23.62 17.2838 20.7162 13.6038 19.717C13.0792 18.2975 12.8125 16.8051 12.8125 15.2787C12.8125 12.8857 13.4762 10.552 14.7318 8.52991C14.9594 8.16334 14.8467 7.6817 14.4802 7.45405C14.1138 7.22647 13.632 7.33905 13.4043 7.70569C11.9948 9.97553 11.2499 12.5942 11.2499 15.2787C11.2499 16.6839 11.4516 18.0637 11.8493 19.3943C11.4978 19.3596 11.1416 19.3414 10.7812 19.3414C4.83641 19.3414 0 24.1779 0 30.1226C0 32.2561 0.616875 34.3041 1.78734 36.0696L0.95125 39.1903C0.878984 39.4599 0.956094 39.7476 1.15344 39.945C1.35078 40.1423 1.63836 40.2194 1.90805 40.1472L5.10609 39.2902C6.80922 40.3468 8.76359 40.9037 10.7812 40.9037C12.8347 40.9037 14.8321 40.324 16.5575 39.2272C16.9216 38.9958 17.0291 38.513 16.7977 38.1488C16.5662 37.7847 16.0833 37.6772 15.7193 37.9086C14.2448 38.8458 12.5373 39.3412 10.7812 39.3412C8.95305 39.3412 7.18609 38.8069 5.67148 37.7962C5.48453 37.6714 5.25289 37.6331 5.03562 37.6914L2.81063 38.2876L3.38984 36.1259C3.45023 35.9005 3.40672 35.6599 3.27117 35.47C2.15328 33.9031 1.56242 32.054 1.56242 30.1224C1.56242 25.0392 5.69797 20.9037 10.7811 20.9037C15.8642 20.9037 19.9998 25.0393 19.9998 30.1225C19.9998 31.208 19.8132 32.2705 19.4451 33.2803C19.2973 33.6856 19.5061 34.134 19.9115 34.2819C20.3168 34.4296 20.7653 34.2208 20.913 33.8155C21.3439 32.6337 21.5623 31.3912 21.5623 30.1225C21.5623 29.7621 21.5442 29.4059 21.5095 29.0545C22.8402 29.4521 24.2202 29.6535 25.6249 29.6535C28.5058 29.6535 31.2702 28.8101 33.6441 27.2105L38.038 28.3878C38.3078 28.4601 38.5953 28.383 38.7927 28.1856C38.9901 27.9883 39.0672 27.7006 38.9949 27.4309L37.791 22.9382Z" fill="#5FBE3F"/>
<path d="M29.6526 16.9424H21.6953C21.2638 16.9424 20.9141 17.2922 20.9141 17.7237C20.9141 20.3483 23.0494 22.4836 25.674 22.4836C28.2986 22.4836 30.4339 20.3483 30.4339 17.7237C30.4338 17.2922 30.084 16.9424 29.6526 16.9424ZM25.674 20.921C24.1804 20.921 22.9227 19.8915 22.5731 18.5049H28.7749C28.4252 19.8915 27.1675 20.921 25.674 20.921Z" fill="#5FBE3F"/>
<path d="M31.7584 12.6082C31.532 12.2408 31.0507 12.1266 30.6835 12.3529L30.5816 12.4157C30.2146 12.6425 30.1008 13.1239 30.3277 13.491C30.4755 13.7302 30.7312 13.8618 30.993 13.8618C31.1331 13.8618 31.275 13.8241 31.403 13.745L31.503 13.6832C31.8704 13.4568 31.9848 12.9756 31.7584 12.6082Z" fill="#5FBE3F"/>
<path d="M21.0241 12.6082C20.7977 12.2408 20.3163 12.1266 19.9492 12.3529L19.8473 12.4157C19.4802 12.6425 19.3665 13.1239 19.5934 13.491C19.7411 13.7301 19.9969 13.8617 20.2587 13.8617C20.3988 13.8617 20.5406 13.824 20.6686 13.7449L20.7687 13.6831C21.136 13.4568 21.2504 12.9755 21.0241 12.6082Z" fill="#5FBE3F"/>
<path d="M7.03672 29.5707C6.89141 29.4253 6.68984 29.3418 6.48438 29.3418C6.27891 29.3418 6.07742 29.4253 5.93203 29.5707C5.78672 29.716 5.70312 29.9175 5.70312 30.123C5.70312 30.3285 5.78672 30.53 5.93203 30.6753C6.07734 30.8207 6.27891 30.9043 6.48438 30.9043C6.68984 30.9043 6.89141 30.8207 7.03672 30.6753C7.18203 30.53 7.26562 30.3285 7.26562 30.123C7.26562 29.9175 7.18203 29.716 7.03672 29.5707Z" fill="#5FBE3F"/>
<path d="M11.3336 29.5707C11.1883 29.4253 10.9867 29.3418 10.7812 29.3418C10.5758 29.3418 10.3743 29.4253 10.2289 29.5707C10.0836 29.716 10 29.9175 10 30.123C10 30.3285 10.0836 30.53 10.2289 30.6753C10.3742 30.8207 10.5758 30.9043 10.7812 30.9043C10.9867 30.9043 11.1883 30.8207 11.3336 30.6753C11.4789 30.53 11.5625 30.3285 11.5625 30.123C11.5625 29.9175 11.4789 29.716 11.3336 29.5707Z" fill="#5FBE3F"/>
<path d="M15.6305 29.5707C15.4852 29.4253 15.2836 29.3418 15.0781 29.3418C14.8727 29.3418 14.6712 29.4253 14.5258 29.5707C14.3805 29.716 14.2969 29.9175 14.2969 30.123C14.2969 30.3285 14.3805 30.53 14.5258 30.6753C14.6711 30.8207 14.8727 30.9043 15.0781 30.9043C15.2836 30.9043 15.4852 30.8207 15.6305 30.6753C15.7758 30.53 15.8594 30.3285 15.8594 30.123C15.8594 29.9175 15.7758 29.716 15.6305 29.5707Z" fill="#5FBE3F"/>
<path d="M19.1285 35.836C18.9832 35.6907 18.7816 35.6071 18.5762 35.6071C18.3699 35.6071 18.1691 35.6907 18.0238 35.836C17.8785 35.9814 17.7949 36.1829 17.7949 36.3884C17.7949 36.5939 17.8785 36.7954 18.0238 36.9407C18.1691 37.086 18.3699 37.1696 18.5762 37.1696C18.7816 37.1696 18.9832 37.086 19.1285 36.9407C19.2738 36.7954 19.3574 36.5939 19.3574 36.3884C19.3574 36.1829 19.2738 35.9814 19.1285 35.836Z" fill="#5FBE3F"/>
<path d="M16.5914 5.08837C16.4461 4.94306 16.2445 4.86024 16.0391 4.86024C15.8328 4.86024 15.632 4.94306 15.4867 5.08837C15.3406 5.23446 15.2578 5.43524 15.2578 5.64149C15.2578 5.84696 15.3406 6.04853 15.4867 6.19384C15.632 6.33915 15.8327 6.42196 16.0391 6.42196C16.2445 6.42196 16.4461 6.33915 16.5914 6.19384C16.7367 6.04853 16.8203 5.84696 16.8203 5.64149C16.8203 5.43524 16.7367 5.23446 16.5914 5.08837Z" fill="#5FBE3F"/>
</g>
<defs>
<clipPath id="clip0">
<rect width="40" height="40" fill="white" transform="translate(0 0.903656)"/>
</clipPath>
</defs>
</svg>

<svg xmlns="http://www.w3.org/2000/svg" fill="none" viewBox="0 0 40 41"><g fill="#5FBE3F" clip-path="url(#clip0)"><path d="M37.791 22.938A14.305 14.305 0 0 0 40 15.278C40 7.353 33.55.905 25.625.905c-2.655 0-5.25.73-7.502 2.11a.781.781 0 1 0 .817 1.332 12.785 12.785 0 0 1 6.685-1.88c7.065 0 12.812 5.748 12.812 12.813 0 2.562-.753 5.035-2.18 7.15a.781.781 0 0 0 .022.904l.856 3.195-3.436-.92a.78.78 0 0 0-.655.118 12.725 12.725 0 0 1-7.42 2.365c-1.525 0-3.018-.267-4.437-.79-1-3.681-3.903-6.585-7.583-7.584a12.758 12.758 0 0 1-.791-4.438c0-2.393.663-4.727 1.919-6.75a.781.781 0 0 0-1.328-.823 14.34 14.34 0 0 0-2.154 7.573c0 1.405.202 2.785.6 4.115a10.868 10.868 0 0 0-1.069-.053C4.836 19.341 0 24.178 0 30.123c0 2.133.617 4.181 1.787 5.947l-.836 3.12a.781.781 0 0 0 .957.957l3.198-.857a10.733 10.733 0 0 0 5.675 1.614c2.054 0 4.051-.58 5.777-1.677a.781.781 0 0 0-.839-1.318 9.189 9.189 0 0 1-4.938 1.432 9.175 9.175 0 0 1-5.11-1.545.78.78 0 0 0-.635-.105l-2.225.597.579-2.162a.781.781 0 0 0-.119-.656 9.155 9.155 0 0 1-1.709-5.348c0-5.083 4.136-9.218 9.22-9.218 5.082 0 9.218 4.135 9.218 9.218a9.192 9.192 0 0 1-.555 3.158.781.781 0 0 0 1.468.535 10.747 10.747 0 0 0 .596-4.76c1.331.397 2.711.599 4.116.599 2.88 0 5.645-.844 8.02-2.444l4.393 1.178a.781.781 0 0 0 .957-.957l-1.204-4.493z"/><path d="M29.653 16.942h-7.958a.781.781 0 0 0-.78.782 4.765 4.765 0 0 0 4.759 4.76 4.765 4.765 0 0 0 4.76-4.76.781.781 0 0 0-.781-.782zm-3.979 3.979a3.203 3.203 0 0 1-3.1-2.416h6.2a3.204 3.204 0 0 1-3.1 2.416zM31.758 12.608a.781.781 0 0 0-1.075-.255l-.101.063a.781.781 0 1 0 .821 1.329l.1-.062a.781.781 0 0 0 .255-1.075zM21.024 12.608a.781.781 0 0 0-1.075-.255l-.102.063a.781.781 0 1 0 .822 1.329l.1-.062a.781.781 0 0 0 .255-1.075zM7.037 29.57a.787.787 0 0 0-.553-.228.787.787 0 0 0-.552.229.787.787 0 0 0-.229.552c0 .205.084.407.229.552a.787.787 0 0 0 .552.23.787.787 0 0 0 .553-.23.787.787 0 0 0 .229-.552.787.787 0 0 0-.23-.552zM11.334 29.57a.787.787 0 0 0-.553-.228.787.787 0 0 0-.552.229.787.787 0 0 0-.229.552c0 .205.084.407.229.552a.787.787 0 0 0 .552.23.787.787 0 0 0 .553-.23.787.787 0 0 0 .229-.552.787.787 0 0 0-.23-.552zM15.63 29.57a.787.787 0 0 0-.552-.228.787.787 0 0 0-.552.229.787.787 0 0 0-.23.552.787.787 0 0 0 .781.781.787.787 0 0 0 .553-.229.787.787 0 0 0 .23-.552.787.787 0 0 0-.23-.552zM19.128 35.836a.787.787 0 0 0-.552-.229.786.786 0 0 0-.552.229.787.787 0 0 0-.23.552.786.786 0 0 0 .781.781.787.787 0 0 0 .553-.228.787.787 0 0 0 .23-.553.787.787 0 0 0-.23-.552zM16.591 5.088a.786.786 0 0 0-1.104 0 .786.786 0 0 0 0 1.106.785.785 0 0 0 1.104 0 .787.787 0 0 0 .23-.553.789.789 0 0 0-.23-.553z"/></g><defs><clipPath id="clip0"><path fill="#fff" d="M0 0h40v40H0z" transform="translate(0 .904)"/></clipPath></defs></svg>
